X: 12
T: No_111_Song_of_the_Man_on_the_Rock.krn
N: Derived from No_111_Song_of_the_Man_on_the_Rock.krn
%%abc-version 2.0
%%abcx-abcm2ps-target-version 5.9.1 (29 Sep 2008)
%%abc-creator hum2abc beta
%%abcx-conversion-date 2019/03/15 08:36:13
%%humdrum-veritas 3573856957
%%humdrum-veritas-data 484754944
%%linebreak <none>
%%barnumbers 0
L: 1/16
M: 2/4
K: A clef=bass
[K:clef=bass][M:2/4]z4z2 z E, | 
F,3A,A,4 | 
A,6B,A, | 
F,4z4 ]|:  
A,4A,F,3 | 
F,E,3 E,2 z E, | 
F,4(3A,2F,2E,2 ||  
[M:3/4]F,8-F,2A,F, ||  
[M:2/4]E,8 | 
F,4F,4 | 
F,E,3 E,2 z E, | 
F,3A,A,4 | 
A,6B,A, | 
F,8 :|]  



